assets/Images/highlevel70.svg

<svg width="70" height="50" viewBox="0 0 70 50" fill="none" xmlns="http://www.w3.org/2000/svg">
<path d="M35 28.5714V45.3297H40.4469C40.5426 45.3077 40.6164 45.2308 40.6355 45.1374C40.9691 43.228 42.6234 41.7747 44.6223 41.7747C46.6211 41.7747 48.2754 43.228 48.6062 45.1374C48.6281 45.2582 48.825 45.3297 48.9453 45.3297H51.6797V28.5714H35ZM36.6406 12.1951V1.37363H30.625V6.70879L23.7289 0.376373L0.563278 21.2225L4.08515 25.2115L7.65625 21.9698V49.4505H12.0312V42.3077H14.7656V44.5055H16.4062V42.3077H19.1406V49.4505H21.6016V42.3077H24.3359V44.5055H25.9766V42.3077H28.7109V49.4505H39.6484V46.978H33.3594V26.9231H39.6484V22.1703L43.0992 25.4121L46.6512 21.522L36.6406 12.1951ZM28.7109 39.8352H21.6016V32.6923H24.3359V34.8901H25.9766V32.6923H28.7109V39.8352ZM69.1797 43.1319H68.6328V40.1099C68.6328 39.1346 67.9738 38.1868 66.9922 38.1868H62.6172C62.5516 38.1868 62.3492 38.0824 62.3055 38.0385L57.5367 32.8709C57.318 32.6483 56.9215 32.4286 56.6016 32.4176H52.7734V45.3297H59.6094C59.7297 45.3297 59.8008 45.2473 59.8227 45.1374C60.1535 43.228 61.8105 41.7747 63.8066 41.7747C65.8055 41.7747 67.4625 43.228 67.7934 45.1374C67.8152 45.2582 67.9656 45.3297 68.0859 45.3297H68.3594C68.9883 45.3297 69.4531 44.8516 69.4531 44.2308V43.4066C69.4531 43.2857 69.3109 43.1319 69.1797 43.1319ZM60.0879 38.272H54.2527C54.1187 38.272 54.0094 38.1593 54.0094 38.0275V34.0797C54.0094 33.9451 54.1187 33.8352 54.2527 33.8352H56.5332C56.5988 33.8352 56.6645 33.8681 56.7219 33.9121L60.2766 37.8489C60.4078 38.0165 60.2984 38.272 60.0879 38.272ZM63.8066 42.8187C62.1305 42.8187 60.7715 44.1841 60.7715 45.8681C60.7715 47.5549 62.1305 48.9176 63.8066 48.9176C65.4855 48.9176 66.8445 47.5549 66.8445 45.8681C66.8445 44.1841 65.4855 42.8187 63.8066 42.8187ZM63.8066 47.0357C63.1695 47.0357 62.6445 46.5082 62.6445 45.8681C62.6445 45.228 63.1695 44.7005 63.8066 44.7005C64.4465 44.7005 64.9715 45.228 64.9715 45.8681C64.9715 46.5082 64.4465 47.0357 63.8066 47.0357ZM44.6223 42.8187C42.9434 42.8187 41.5871 44.1841 41.5871 45.8681C41.5871 47.5549 42.9434 48.9176 44.6223 48.9176C46.3012 48.9176 47.6574 47.5549 47.6574 45.8681C47.6574 44.1841 46.3012 42.8187 44.6223 42.8187ZM44.6223 47.0357C43.9852 47.0357 43.4602 46.5082 43.4602 45.8681C43.4602 45.228 43.9852 44.7005 44.6223 44.7005C45.2594 44.7005 45.7844 45.228 45.7844 45.8681C45.7844 46.5082 45.2594 47.0357 44.6223 47.0357Z" fill="black"/>
</svg>

<svg width="70" height="50" fill="none" xmlns="http://www.w3.org/2000/svg"><path d="M35 28.6v16.7h5.4c.1 0 .2 0 .2-.2a4 4 0 0 1 8 0c0 .2.2.2.3.2h2.8V28.6H35Zm1.6-16.4V1.4h-6v5.3L23.7.4.6 21.2l3.5 4L7.7 22v27.5H12v-7.2h2.8v2.2h1.6v-2.2h2.7v7.2h2.5v-7.2h2.7v2.2H26v-2.2h2.7v7.2h11V47h-6.3V27h6.2v-4.8l3.5 3.2 3.6-3.9-10-9.3Zm-7.9 27.6h-7.1v-7.1h2.7v2.2H26v-2.2h2.7v7.1Zm40.5 3.3h-.6v-3c0-1-.6-2-1.6-2h-4.7l-4.8-5.2c-.2-.3-.6-.5-.9-.5h-3.8v13h6.8l.2-.3a4 4 0 0 1 8 0c0 .2.2.2.3.2h.3c.6 0 1-.4 1-1v-.9c0-.1 0-.3-.2-.3ZM60 38.3h-5.8a.2.2 0 0 1-.3-.3v-4s.1-.2.3-.2h2.2l.2.1 3.6 4c.1.1 0 .4-.2.4Zm3.7 4.5a3 3 0 0 0-3 3 3 3 0 1 0 6 0 3 3 0 0 0-3-3Zm0 4.2c-.6 0-1.2-.5-1.2-1.1 0-.7.6-1.2 1.2-1.2s1.2.5 1.2 1.2c0 .6-.6 1.1-1.2 1.1Zm-19.2-4.2a3 3 0 0 0-3 3 3 3 0 1 0 6 0 3 3 0 0 0-3-3Zm0 4.2c-.6 0-1.1-.5-1.1-1.1 0-.7.5-1.2 1.1-1.2.7 0 1.2.5 1.2 1.2 0 .6-.5 1.1-1.2 1.1Z" fill="#000"/></svg>
